X: 1
T:Polska fr Bingsj\"o
T:Skriket
T:the Scream
R:Polska
M:3/4
L:1/16
N:Yorkshire Dales Scandy weekend, June '99; workshop tunes
O:Sweden
Z:photocopies from Suzanne Lind \& Louise Schultz
K:Dm
(A2|\
D2)A2 (~FE)D^C D2(e2 | ~f2)ed (cd)ec A2(c'2 | \
c'2)^g2 a2(f2 ~ef)ed | d2^cd (ef)e^c A3(A |\
d2)A2 (FE)D^C D2(e2 | ~f2)ed (cd)ec A2(c'2 |\
c'2)^g2 a2(~f2 e2)eg | (fe)d^c d6 ::\
(e2 |\
~f2)(~gf e2)(fe d2)(ed) | (^cd)ec A3 (e2 | \
~fe)fg a4 (~f3g | |f2)ed (cd)(ec) A2(e2 |\
~f2)~gf e2(fe d2)d2 | (cd)ec A6(e2 |\
~fe)fg a2(~f2 e2)(eg) (fe)d^c d6 :|
